X:6573
T:The Boys of Oakhill
O:england
M:4/4
L:1/8
K:D
|:F3/2A/2|B3/2A/2F3/2A/2 D2A3/2A/2|B3/2A/2  (3Bcd e2d3/2e/2|f3/2a/2a3/2f/2 e3/2g/2f3/2e/2|
d3/2f/2e3/2d/2 B2d3/2B/2|B3/2A/2F3/2A/2 D2F3/2A/2|B3/2A/2  (3Bcd e2d3/2e/2|f3/2a/2a3/2f/2 e3/2g/2f3/2e/2|
d2f2d2:|
|:f3/2g/2|a3/2f/2d3/2f a2g3/2f/2|e3/2f/2g3/2a/2 b2a3/2g/2|f3/2a/2g3/2f/2 e3/2g/2f3/2e/2|
d3/2f/2e3/2d/2 B2d3/2B/2|B3/2A/2F3/2A/2 D2F3/2A/2|B3/2A/2  (3Bcd e2d3/2e/2|f3/2a/2a3/2f/2 e3/2g/2f3/2e/2|
d2f2d2:|


